!!!COM:	Praetorius, Michael
!!!OTL:	Gott der Vater wohn uns bei
**kern	**kern	**kern	**kern
*ICvox	*ICvox	*ICvox	*ICvox
*I"Bassus	*I"Tenor	*I"Altus	*I"Diskantus
*clefF4	*clefGv2	*clefG2	*clefG2
*k[]	*k[]	*k[]	*k[]
*M2/2	*M2/2	*M2/2	*M2/2
!!Meter Interpreted, Nat Condit-Schultz, 2018, Free
*met(c)	*met(c)	*met(c)	*met(c)
2C	2c	2e	2g
2C	2c	2e	2g
2F	2c	2f	2a
2E	2e	2g	2b
2A	2c	2e	2cc
2A	2c	2f	2cc
2G	1.d	(2g	2b
1D	.	1f#)	1a
=	=	=	=
2GG	2d	2g	2b
2AA	2A	2e	2cc
2BB	2D	2d	2g
2C	2G	2c	2e
2FF	2A	2.d	2f
1GG	1G	.	2e
.	.	4.c	.
.	.	.	2d
.	.	16BLL	.
.	.	16AJJ	.
.	.	4B	.
1C	1E	1G	1c
=:|	=:|	=:|	=:|
2F	4r	2A	2c
.	2F	.	.
2D	.	2B	2d
.	4F	.	.
2C	2G	2c	2e
2C	2G	2.c	2e
2F	8AL	.	2c
.	8GJ	.	.
.	2F	2A	.
2D	.	.	2d
.	4F	4A	.
2.AA	2.A	2.c	2.e
=	=	=	=
4A	4A	4e	4cc
2E	2B	2g	2b
2A	1A	2e	2cc
4D	.	4.f	2.dd
8EL	.	.	.
8FJ	.	8e	.
4G	4B	4d	.
4C	2A	4e	4cc
1D	.	4f	(2b
.	2G	4d	.
.	.	2d	2a)
.	4F#	.	.
2.GG	2.G	2.d	2.g
=	=	=	=
4C	4G	4e	4g
2C	2G	2e	2g
2AA	2A	2e	2cc
2.E	2G	2e	2b
.	2B	2e	2g
4G	.	.	.
2F	2A	2c	2a
4E	2B	2d	4g
4D	.	.	4f
2.C	2.c	2.G	2.e
=	=	=	=
4BB	4d	4G	4d
2C	2c	2G	2e
2D	2A	1d	2f
4GG	4.B	.	2.g
8AAL	.	.	.
8BBJ	8A	.	.
4C	4G	4e	.
4FF	4A	2d	4f
1GG	4B	.	2e
.	4c	2c	.
.	4d	.	2d
.	4G	4B	.
1C	1G	1c	1c
=	=	=	=
2F	4r	2A	2c
.	2F	.	.
2D	.	2A	2d
.	4F	.	.
2C	2G	2c	2e
2C	2G	2.c	2e
2F	8AL	.	2c
.	8GJ	.	.
.	4F	2A	.
2D	2F	.	2d
.	.	4B	.
2.AA	2.A	2.c	2.e
=	=	=	=
4A	4A	4e	4cc
2E	2B	2g	2b
2A	1A	2e	2cc
4D	.	4.f	2.dd
8EL	.	.	.
8FJ	.	8e	.
4G	4B	4d	.
4C	2A	4e	4cc
1D	.	4f	2b
.	2G	4d	.
.	.	2d	2a
.	4F#	.	.
2.GG	2.G	2.d	2.g
=	=	=	=
4C	4G	4e	4g
2C	2G	2e	2g
2AA	2A	2e	2cc
2.E	2G	2e	2b
.	2B	2e	2g
4G	.	.	.
2F	2A	2c	2a
4E	2B	2d	4g
4D	.	.	4f
2.C	2.c	2.G	2.e
=	=	=	=
4BB	4d	4G	4d
2C	2c	2G	2e
2D	2A	1d	2f
4GG	4.B	.	2.g
8AAL	.	.	.
8BBJ	8A	.	.
4C	4G	4e	.
4FF	4A	2d	4f
1GG	1G	.	2e
.	.	4.c	.
.	.	.	2d
.	.	16BLL	.
.	.	16AJJ	.
.	.	4B	.
1C	1E	1G	1c
=	=	=	=
2AA	2E	2.A	2c
2D	2F	.	2d
.	.	4B	.
2C	2G	2c	2e
2C	2G	2.c	2e
2F	2A	.	2c
.	.	2A	.
2D	2F	.	2d
.	.	4B	.
2.AA	2.A	2.c	2.e
=	=	=	=
4FF	4A	4c	4f
4.C	4.E	4.c	4.g
8AA	8F	8c	8a
2BB	4D	2d	2g
.	2G	.	.
4.Cn	.	2.c	2e
.	4G	.	.
8BB	.	.	.
4AA	2A	.	2f
8GGL	.	2d	.
8FFJ	.	.	.
4GG	[1G	.	2e
4C	.	2c	.
2GG	.	.	2d
.	.	4B	.
00C	00G]	2.c	00c
.	.	4d	.
.	.	0.e	.
==	==	==	==
*-	*-	*-	*-
